X:1
T:Seccomb, 11.10.11.10
T:Charles H. Morse, 1893
T:Seccomb, 11.10.11.10
T:Public Domain
C:Charles H. Morse, 1893
Z:Public Domain
%%score 1 ( 2 3 )
L:1/8
M:4/4
K:Eb
V:1 treble 
V:2 bass 
V:3 bass 
V:1
 [EG]4 [EG]2 [EG]2 | [EA]4 [EG]4 | [EG]2 [B,F]2 [B,E]2 [B,D]2 | [B,F]4 [B,E]2 [EG]2 | [EA]4 [EG]4 | %5
 [Ec]4 [EB]4 | [CB]2 [DA]2 [EG]2 [EF]2 | [DF]6 [EG]2 | [EA]4 [GB]4 | [Ac]4 [Fd]4 | %10
 [Ee]2 [Ed]2 [Ec]2 [EB]2 | [EB]4 [EA]2 [DA]2 | [EG]4 [DG]4 | [=EG]2 [CG]2 [CA]2 [CF]2 | %14
 [B,E]4 [DF]4 | [B,E]8 |] %16
V:2
 [E,B,]4 [E,B,]2 [E,B,]2 | [E,C]4 [E,B,]4 | [B,,B,]2 [B,,A,]2 [B,,G,]2 [B,,F,]2 | %3
 [E,A,]4 [E,G,]2 [E,B,]2 | [E,C]4 [E,B,]4 | A,4 [G,B,]4 | [F,A,]2 [F,B,]2 [E,B,]2 [C,=A,]2 | %7
 [B,,B,]6 [E,B,]2 | [C,A,]4 [E,E]4 | [A,E]4 [A,B,]4 | [G,B,]2 [G,B,]2 A,2 [G,B,]2 | %11
 [F,C]4 [F,C]2 [B,,B,]2 | [E,B,]4 [G,=B,]4 | [C,C]2 [=E,B,]2 [F,A,]2 [A,,A,]2 | %14
 [B,,G,]4 (B,2 A,2) | [E,G,]8 |] %16
V:3
 x8 | x8 | x8 | x8 | x8 | A,4 x4 | x8 | x8 | x8 | x8 | x4 A,2 x2 | x8 | x8 | x8 | x4 B,,4 | x8 |] %16

